X: 38700
T: Strawberry Blossom, The
R: reel
M: 4/4
K: Dmajor
fe (3def edBd|fddc d2 ag|fe (3def edBd|dBAF E2 D2|
fe (3def edBd|fddc defg|afge fdec|dBAF E2 D2||
faab afdf|abaf gfeg|faab afdf|gfed B2 A2|
faab afdf|abaf gfeg|f>a (3aba g>b (3bc'b|gfef gbaf|
fe (3def edBd|fddc d2 ag|fe (3def edBd|dBAF E2 D2|
fe (3def edBd|fddc defg|afge fdec|dBAF E2 D2||

